images/50415323.svg

<?xml version="1.0" encoding="UTF-8"?>
<svg xmlns="http://www.w3.org/2000/svg" xmlns:xlink="http://www.w3.org/1999/xlink" width="300pt" height="300pt" viewBox="0 0 300 300" version="1.1">
<defs>
<g>
<symbol overflow="visible" id="glyph0-0">
<path style="stroke:none;" d="M 0.453125 1.59375 L 0.453125 -6.34375 L 4.953125 -6.34375 L 4.953125 1.59375 Z M 0.953125 1.09375 L 4.453125 1.09375 L 4.453125 -5.84375 L 0.953125 -5.84375 Z M 0.953125 1.09375 "/>
</symbol>
<symbol overflow="visible" id="glyph0-1">
<path style="stroke:none;" d="M 3.546875 -5.953125 C 2.898438 -5.953125 2.382812 -5.710938 2 -5.234375 C 1.625 -4.753906 1.4375 -4.101562 1.4375 -3.28125 C 1.4375 -2.445312 1.625 -1.789062 2 -1.3125 C 2.382812 -0.832031 2.898438 -0.59375 3.546875 -0.59375 C 4.191406 -0.59375 4.703125 -0.832031 5.078125 -1.3125 C 5.453125 -1.789062 5.640625 -2.445312 5.640625 -3.28125 C 5.640625 -4.101562 5.453125 -4.753906 5.078125 -5.234375 C 4.703125 -5.710938 4.191406 -5.953125 3.546875 -5.953125 Z M 3.546875 -6.6875 C 4.460938 -6.6875 5.195312 -6.375 5.75 -5.75 C 6.300781 -5.132812 6.578125 -4.3125 6.578125 -3.28125 C 6.578125 -2.238281 6.300781 -1.410156 5.75 -0.796875 C 5.195312 -0.179688 4.460938 0.125 3.546875 0.125 C 2.617188 0.125 1.878906 -0.179688 1.328125 -0.796875 C 0.773438 -1.410156 0.5 -2.238281 0.5 -3.28125 C 0.5 -4.3125 0.773438 -5.132812 1.328125 -5.75 C 1.878906 -6.375 2.617188 -6.6875 3.546875 -6.6875 Z M 3.546875 -6.6875 "/>
</symbol>
<symbol overflow="visible" id="glyph0-2">
<path style="stroke:none;" d="M 0.890625 -6.5625 L 2.078125 -6.5625 L 4.984375 -1.078125 L 4.984375 -6.5625 L 5.84375 -6.5625 L 5.84375 0 L 4.65625 0 L 1.75 -5.484375 L 1.75 0 L 0.890625 0 Z M 0.890625 -6.5625 "/>
</symbol>
<symbol overflow="visible" id="glyph0-3">
<path style="stroke:none;" d="M 0.890625 -6.5625 L 1.765625 -6.5625 L 1.765625 -3.875 L 5 -3.875 L 5 -6.5625 L 5.890625 -6.5625 L 5.890625 0 L 5 0 L 5 -3.125 L 1.765625 -3.125 L 1.765625 0 L 0.890625 0 Z M 0.890625 -6.5625 "/>
</symbol>
<symbol overflow="visible" id="glyph1-0">
<path style="stroke:none;" d="M 0.40625 1.421875 L 0.40625 -5.640625 L 4.40625 -5.640625 L 4.40625 1.421875 Z M 0.84375 0.96875 L 3.953125 0.96875 L 3.953125 -5.1875 L 0.84375 -5.1875 Z M 0.84375 0.96875 "/>
</symbol>
<symbol overflow="visible" id="glyph1-1">
<path style="stroke:none;" d="M 3.6875 -5.015625 L 3.6875 -2.84375 L 5.859375 -2.84375 L 5.859375 -2.171875 L 3.6875 -2.171875 L 3.6875 0 L 3.03125 0 L 3.03125 -2.171875 L 0.84375 -2.171875 L 0.84375 -2.84375 L 3.03125 -2.84375 L 3.03125 -5.015625 Z M 3.6875 -5.015625 "/>
</symbol>
</g>
</defs>
<g id="surface8529">
<rect x="0" y="0" width="300" height="300" style="fill:rgb(100%,100%,100%);fill-opacity:1;stroke:none;"/>
<path style="fill:none;stroke-width:1.2;stroke-linecap:butt;stroke-linejoin:miter;stroke:rgb(100%,0%,0%);stroke-opacity:1;stroke-miterlimit:10;" d="M 82.707031 213.777344 L 84.351562 203.511719 "/>
<path style="fill:none;stroke-width:1.2;stroke-linecap:butt;stroke-linejoin:miter;stroke:rgb(0%,0%,0%);stroke-opacity:1;stroke-miterlimit:10;" d="M 84.351562 203.511719 L 86 193.25 "/>
<path style="fill:none;stroke-width:1.2;stroke-linecap:butt;stroke-linejoin:miter;stroke:rgb(0%,0%,0%);stroke-opacity:1;stroke-miterlimit:10;" d="M 62.171875 216.988281 L 72.4375 215.382812 "/>
<path style="fill:none;stroke-width:1.2;stroke-linecap:butt;stroke-linejoin:miter;stroke:rgb(100%,0%,0%);stroke-opacity:1;stroke-miterlimit:10;" d="M 72.4375 215.382812 L 82.707031 213.777344 "/>
<path style=" stroke:none;fill-rule:nonzero;fill:rgb(100%,100%,100%);fill-opacity:1;" d="M 78.707031 208.277344 L 86.707031 208.277344 L 86.707031 219.277344 L 78.707031 219.277344 Z M 78.707031 208.277344 "/>
<g style="fill:rgb(100%,0%,0%);fill-opacity:1;">
  <use xlink:href="#glyph0-1" x="78.707031" y="216.94043"/>
</g>
<path style="fill:none;stroke-width:1.2;stroke-linecap:butt;stroke-linejoin:miter;stroke:rgb(0%,0%,0%);stroke-opacity:1;stroke-miterlimit:10;" d="M 86 193.25 L 67.496094 183.777344 "/>
<path style="fill:none;stroke-width:1.2;stroke-linecap:butt;stroke-linejoin:miter;stroke:rgb(0%,0%,0%);stroke-opacity:1;stroke-miterlimit:10;" d="M 81.917969 196.65625 L 67.117188 189.078125 "/>
<path style="fill:none;stroke-width:1.2;stroke-linecap:butt;stroke-linejoin:miter;stroke:rgb(0%,0%,0%);stroke-opacity:1;stroke-miterlimit:10;" d="M 67.496094 183.777344 L 52.769531 198.449219 "/>
<path style="fill:none;stroke-width:1.2;stroke-linecap:butt;stroke-linejoin:miter;stroke:rgb(0%,0%,0%);stroke-opacity:1;stroke-miterlimit:10;" d="M 67.496094 183.777344 L 64.28125 163.242188 "/>
<path style="fill:none;stroke-width:1.2;stroke-linecap:butt;stroke-linejoin:miter;stroke:rgb(0%,0%,0%);stroke-opacity:1;stroke-miterlimit:10;" d="M 52.769531 198.449219 L 62.171875 216.988281 "/>
<path style="fill:none;stroke-width:1.2;stroke-linecap:butt;stroke-linejoin:miter;stroke:rgb(0%,0%,0%);stroke-opacity:1;stroke-miterlimit:10;" d="M 58.070312 198.089844 L 65.59375 212.921875 "/>
<path style="fill:none;stroke-width:1.2;stroke-linecap:butt;stroke-linejoin:miter;stroke:rgb(0%,0%,0%);stroke-opacity:1;stroke-miterlimit:10;" d="M 64.28125 163.242188 L 80.460938 150.1875 "/>
<path style="fill:none;stroke-width:1.2;stroke-linecap:butt;stroke-linejoin:miter;stroke:rgb(0%,0%,0%);stroke-opacity:1;stroke-miterlimit:10;" d="M 62.828125 158.128906 L 75.773438 147.6875 "/>
<path style="fill:none;stroke-width:1.2;stroke-linecap:butt;stroke-linejoin:miter;stroke:rgb(0%,0%,0%);stroke-opacity:1;stroke-miterlimit:10;" d="M 44.890625 155.753906 L 64.28125 163.242188 "/>
<path style="fill:none;stroke-width:1.2;stroke-linecap:butt;stroke-linejoin:miter;stroke:rgb(0%,0%,0%);stroke-opacity:1;stroke-miterlimit:10;" d="M 80.460938 150.1875 L 77.25 129.652344 "/>
<path style="fill:none;stroke-width:1.2;stroke-linecap:butt;stroke-linejoin:miter;stroke:rgb(0%,0%,0%);stroke-opacity:1;stroke-miterlimit:10;" d="M 77.25 129.652344 L 57.855469 122.164062 "/>
<path style="fill:none;stroke-width:1.2;stroke-linecap:butt;stroke-linejoin:miter;stroke:rgb(0%,0%,0%);stroke-opacity:1;stroke-miterlimit:10;" d="M 77.070312 124.339844 L 61.554688 118.351562 "/>
<path style="fill:none;stroke-width:1.2;stroke-linecap:butt;stroke-linejoin:miter;stroke:rgb(0%,0%,0%);stroke-opacity:1;stroke-miterlimit:10;" d="M 77.25 129.652344 L 93.429688 116.601562 "/>
<path style="fill:none;stroke-width:1.2;stroke-linecap:butt;stroke-linejoin:miter;stroke:rgb(0%,0%,0%);stroke-opacity:1;stroke-miterlimit:10;" d="M 57.855469 122.164062 L 41.675781 135.214844 "/>
<path style="fill:none;stroke-width:1.2;stroke-linecap:butt;stroke-linejoin:miter;stroke:rgb(0%,0%,0%);stroke-opacity:1;stroke-miterlimit:10;" d="M 57.855469 122.164062 L 54.644531 101.628906 "/>
<path style="fill:none;stroke-width:1.2;stroke-linecap:butt;stroke-linejoin:miter;stroke:rgb(0%,0%,0%);stroke-opacity:1;stroke-miterlimit:10;" d="M 41.675781 135.214844 L 44.890625 155.753906 "/>
<path style="fill:none;stroke-width:1.2;stroke-linecap:butt;stroke-linejoin:miter;stroke:rgb(0%,0%,0%);stroke-opacity:1;stroke-miterlimit:10;" d="M 46.828125 136.515625 L 49.398438 152.945312 "/>
<path style="fill:none;stroke-width:1.2;stroke-linecap:butt;stroke-linejoin:miter;stroke:rgb(0%,0%,0%);stroke-opacity:1;stroke-miterlimit:10;" d="M 55.523438 99.34375 L 45.828125 95.601562 "/>
<path style="fill:none;stroke-width:1.2;stroke-linecap:butt;stroke-linejoin:miter;stroke:rgb(100%,0%,0%);stroke-opacity:1;stroke-miterlimit:10;" d="M 45.828125 95.601562 L 36.128906 91.859375 "/>
<path style="fill:none;stroke-width:1.2;stroke-linecap:butt;stroke-linejoin:miter;stroke:rgb(0%,0%,0%);stroke-opacity:1;stroke-miterlimit:10;" d="M 53.761719 103.910156 L 44.066406 100.164062 "/>
<path style="fill:none;stroke-width:1.2;stroke-linecap:butt;stroke-linejoin:miter;stroke:rgb(100%,0%,0%);stroke-opacity:1;stroke-miterlimit:10;" d="M 44.066406 100.164062 L 34.371094 96.421875 "/>
<path style="fill:none;stroke-width:1.2;stroke-linecap:butt;stroke-linejoin:miter;stroke:rgb(0%,0%,0%);stroke-opacity:1;stroke-miterlimit:10;" d="M 54.644531 101.628906 L 62.734375 95.101562 "/>
<path style="fill:none;stroke-width:1.2;stroke-linecap:butt;stroke-linejoin:miter;stroke:rgb(0%,0%,100%);stroke-opacity:1;stroke-miterlimit:10;" d="M 62.734375 95.101562 L 70.824219 88.574219 "/>
<path style=" stroke:none;fill-rule:nonzero;fill:rgb(100%,100%,100%);fill-opacity:1;" d="M 27.25 88.640625 L 35.25 88.640625 L 35.25 99.640625 L 27.25 99.640625 Z M 27.25 88.640625 "/>
<g style="fill:rgb(100%,0%,0%);fill-opacity:1;">
  <use xlink:href="#glyph0-1" x="27.25" y="97.303711"/>
</g>
<path style="fill:none;stroke-width:1.2;stroke-linecap:butt;stroke-linejoin:miter;stroke:rgb(0%,0%,100%);stroke-opacity:1;stroke-miterlimit:10;" d="M 70.824219 88.574219 L 80.519531 92.320312 "/>
<path style="fill:none;stroke-width:1.2;stroke-linecap:butt;stroke-linejoin:miter;stroke:rgb(0%,0%,0%);stroke-opacity:1;stroke-miterlimit:10;" d="M 80.519531 92.320312 L 90.214844 96.0625 "/>
<path style=" stroke:none;fill-rule:nonzero;fill:rgb(100%,100%,100%);fill-opacity:1;" d="M 63.824219 83.074219 L 77.824219 83.074219 L 77.824219 94.074219 L 63.824219 94.074219 Z M 63.824219 83.074219 "/>
<g style="fill:rgb(0%,0%,100%);fill-opacity:1;">
  <use xlink:href="#glyph0-2" x="63.824219" y="91.737305"/>
  <use xlink:href="#glyph0-3" x="70.801758" y="91.737305"/>
</g>
<path style="fill:none;stroke-width:1.2;stroke-linecap:butt;stroke-linejoin:miter;stroke:rgb(0%,0%,0%);stroke-opacity:1;stroke-miterlimit:10;" d="M 91.75 97.964844 L 99.839844 91.441406 "/>
<path style="fill:none;stroke-width:1.2;stroke-linecap:butt;stroke-linejoin:miter;stroke:rgb(100%,0%,0%);stroke-opacity:1;stroke-miterlimit:10;" d="M 99.839844 91.441406 L 107.929688 84.914062 "/>
<path style="fill:none;stroke-width:1.2;stroke-linecap:butt;stroke-linejoin:miter;stroke:rgb(0%,0%,0%);stroke-opacity:1;stroke-miterlimit:10;" d="M 88.679688 94.160156 L 96.769531 87.632812 "/>
<path style="fill:none;stroke-width:1.2;stroke-linecap:butt;stroke-linejoin:miter;stroke:rgb(100%,0%,0%);stroke-opacity:1;stroke-miterlimit:10;" d="M 96.769531 87.632812 L 104.859375 81.105469 "/>
<path style="fill:none;stroke-width:1.2;stroke-linecap:butt;stroke-linejoin:miter;stroke:rgb(0%,0%,0%);stroke-opacity:1;stroke-miterlimit:10;" d="M 90.214844 96.0625 L 93.429688 116.601562 "/>
<path style=" stroke:none;fill-rule:nonzero;fill:rgb(100%,100%,100%);fill-opacity:1;" d="M 102.394531 77.511719 L 110.394531 77.511719 L 110.394531 88.511719 L 102.394531 88.511719 Z M 102.394531 77.511719 "/>
<g style="fill:rgb(100%,0%,0%);fill-opacity:1;">
  <use xlink:href="#glyph0-1" x="102.394531" y="86.174805"/>
</g>
<path style="fill:none;stroke-width:1.2;stroke-linecap:butt;stroke-linejoin:miter;stroke:rgb(0%,0%,0%);stroke-opacity:1;stroke-miterlimit:10;" d="M 93.429688 116.601562 L 112.820312 124.085938 "/>
<path style="fill:none;stroke-width:1.2;stroke-linecap:butt;stroke-linejoin:miter;stroke:rgb(0%,0%,0%);stroke-opacity:1;stroke-miterlimit:10;" d="M 93.605469 121.910156 L 109.121094 127.902344 "/>
<path style="fill:none;stroke-width:1.2;stroke-linecap:butt;stroke-linejoin:miter;stroke:rgb(0%,0%,0%);stroke-opacity:1;stroke-miterlimit:10;" d="M 112.820312 124.085938 L 120.910156 117.5625 "/>
<path style="fill:none;stroke-width:1.2;stroke-linecap:butt;stroke-linejoin:miter;stroke:rgb(0%,0%,100%);stroke-opacity:1;stroke-miterlimit:10;" d="M 120.910156 117.5625 L 129 111.035156 "/>
<path style="fill:none;stroke-width:1.2;stroke-linecap:butt;stroke-linejoin:miter;stroke:rgb(0%,0%,100%);stroke-opacity:1;stroke-miterlimit:10;" d="M 129 111.035156 L 138.695312 114.777344 "/>
<path style="fill:none;stroke-width:1.2;stroke-linecap:butt;stroke-linejoin:miter;stroke:rgb(0%,0%,0%);stroke-opacity:1;stroke-miterlimit:10;" d="M 138.695312 114.777344 L 148.394531 118.519531 "/>
<path style=" stroke:none;fill-rule:nonzero;fill:rgb(100%,100%,100%);fill-opacity:1;" d="M 122 105.535156 L 136 105.535156 L 136 116.535156 L 122 116.535156 Z M 122 105.535156 "/>
<g style="fill:rgb(0%,0%,100%);fill-opacity:1;">
  <use xlink:href="#glyph0-2" x="122" y="114.198242"/>
  <use xlink:href="#glyph0-3" x="128.977539" y="114.198242"/>
</g>
<path style="fill:none;stroke-width:1.2;stroke-linecap:butt;stroke-linejoin:miter;stroke:rgb(0%,0%,0%);stroke-opacity:1;stroke-miterlimit:10;" d="M 148.394531 118.519531 L 151.605469 139.058594 "/>
<path style="fill:none;stroke-width:1.2;stroke-linecap:butt;stroke-linejoin:miter;stroke:rgb(0%,0%,0%);stroke-opacity:1;stroke-miterlimit:10;" d="M 153.546875 119.820312 L 156.117188 136.25 "/>
<path style="fill:none;stroke-width:1.2;stroke-linecap:butt;stroke-linejoin:miter;stroke:rgb(0%,0%,0%);stroke-opacity:1;stroke-miterlimit:10;" d="M 164.574219 105.46875 L 148.394531 118.519531 "/>
<path style="fill:none;stroke-width:1.2;stroke-linecap:butt;stroke-linejoin:miter;stroke:rgb(0%,0%,0%);stroke-opacity:1;stroke-miterlimit:10;" d="M 151.605469 139.058594 L 171 146.546875 "/>
<path style="fill:none;stroke-width:1.2;stroke-linecap:butt;stroke-linejoin:miter;stroke:rgb(0%,0%,0%);stroke-opacity:1;stroke-miterlimit:10;" d="M 171 146.546875 L 187.179688 133.492188 "/>
<path style="fill:none;stroke-width:1.2;stroke-linecap:butt;stroke-linejoin:miter;stroke:rgb(0%,0%,0%);stroke-opacity:1;stroke-miterlimit:10;" d="M 169.546875 141.433594 L 182.488281 130.992188 "/>
<path style="fill:none;stroke-width:1.2;stroke-linecap:butt;stroke-linejoin:miter;stroke:rgb(0%,0%,0%);stroke-opacity:1;stroke-miterlimit:10;" d="M 187.179688 133.492188 L 196.875 137.238281 "/>
<path style="fill:none;stroke-width:1.2;stroke-linecap:butt;stroke-linejoin:miter;stroke:rgb(0%,0%,100%);stroke-opacity:1;stroke-miterlimit:10;" d="M 196.875 137.238281 L 206.570312 140.980469 "/>
<path style="fill:none;stroke-width:1.2;stroke-linecap:butt;stroke-linejoin:miter;stroke:rgb(0%,0%,0%);stroke-opacity:1;stroke-miterlimit:10;" d="M 187.179688 133.492188 L 183.964844 112.957031 "/>
<path style="fill:none;stroke-width:1.2;stroke-linecap:butt;stroke-linejoin:miter;stroke:rgb(0%,0%,100%);stroke-opacity:1;stroke-miterlimit:10;" d="M 206.570312 140.980469 L 208.179688 151.25 "/>
<path style="fill:none;stroke-width:1.2;stroke-linecap:butt;stroke-linejoin:miter;stroke:rgb(0%,0%,0%);stroke-opacity:1;stroke-miterlimit:10;" d="M 208.179688 151.25 L 209.785156 161.519531 "/>
<path style="fill:none;stroke-width:1.2;stroke-linecap:butt;stroke-linejoin:miter;stroke:rgb(0%,0%,0%);stroke-opacity:1;stroke-miterlimit:10;" d="M 222.75 127.929688 L 214.660156 134.453125 "/>
<path style="fill:none;stroke-width:1.2;stroke-linecap:butt;stroke-linejoin:miter;stroke:rgb(0%,0%,100%);stroke-opacity:1;stroke-miterlimit:10;" d="M 214.660156 134.453125 L 206.570312 140.980469 "/>
<path style=" stroke:none;fill-rule:nonzero;fill:rgb(100%,100%,100%);fill-opacity:1;" d="M 203.570312 135.480469 L 210.570312 135.480469 L 210.570312 146.480469 L 203.570312 146.480469 Z M 203.570312 135.480469 "/>
<g style="fill:rgb(0%,0%,100%);fill-opacity:1;">
  <use xlink:href="#glyph0-2" x="203.570312" y="144.143555"/>
</g>
<path style="fill:none;stroke-width:1.2;stroke-linecap:butt;stroke-linejoin:miter;stroke:rgb(0%,0%,0%);stroke-opacity:1;stroke-miterlimit:10;" d="M 209.785156 161.519531 L 229.175781 169.003906 "/>
<path style="fill:none;stroke-width:1.2;stroke-linecap:butt;stroke-linejoin:miter;stroke:rgb(0%,0%,0%);stroke-opacity:1;stroke-miterlimit:10;" d="M 229.175781 169.003906 L 237.265625 162.480469 "/>
<path style="fill:none;stroke-width:1.2;stroke-linecap:butt;stroke-linejoin:miter;stroke:rgb(0%,0%,100%);stroke-opacity:1;stroke-miterlimit:10;" d="M 237.265625 162.480469 L 245.355469 155.953125 "/>
<path style="fill:none;stroke-width:1.2;stroke-linecap:butt;stroke-linejoin:miter;stroke:rgb(0%,0%,100%);stroke-opacity:1;stroke-miterlimit:10;" d="M 245.355469 155.953125 L 243.75 145.683594 "/>
<path style="fill:none;stroke-width:1.2;stroke-linecap:butt;stroke-linejoin:miter;stroke:rgb(0%,0%,0%);stroke-opacity:1;stroke-miterlimit:10;" d="M 243.75 145.683594 L 242.144531 135.414062 "/>
<path style="fill:none;stroke-width:1.2;stroke-linecap:butt;stroke-linejoin:miter;stroke:rgb(0%,0%,100%);stroke-opacity:1;stroke-miterlimit:10;" d="M 245.355469 155.953125 L 255.054688 159.695312 "/>
<path style="fill:none;stroke-width:1.2;stroke-linecap:butt;stroke-linejoin:miter;stroke:rgb(0%,0%,0%);stroke-opacity:1;stroke-miterlimit:10;" d="M 255.054688 159.695312 L 264.75 163.4375 "/>
<path style=" stroke:none;fill-rule:nonzero;fill:rgb(100%,100%,100%);fill-opacity:1;" d="M 235.355469 148.453125 L 256.355469 148.453125 L 256.355469 163.453125 L 235.355469 163.453125 Z M 235.355469 148.453125 "/>
<g style="fill:rgb(0%,0%,100%);fill-opacity:1;">
  <use xlink:href="#glyph0-2" x="235.355469" y="160.554688"/>
  <use xlink:href="#glyph0-3" x="242.333008" y="160.554688"/>
</g>
<g style="fill:rgb(0%,0%,100%);fill-opacity:1;">
  <use xlink:href="#glyph1-1" x="249.347656" y="155.671875"/>
</g>
<path style="fill:none;stroke-width:1.2;stroke-linecap:butt;stroke-linejoin:miter;stroke:rgb(0%,0%,0%);stroke-opacity:1;stroke-miterlimit:10;" d="M 242.144531 135.414062 L 222.75 127.929688 "/>
<path style="fill:none;stroke-width:1.2;stroke-linecap:butt;stroke-linejoin:miter;stroke:rgb(0%,0%,0%);stroke-opacity:1;stroke-miterlimit:10;" d="M 183.964844 112.957031 L 164.574219 105.46875 "/>
<path style="fill:none;stroke-width:1.2;stroke-linecap:butt;stroke-linejoin:miter;stroke:rgb(0%,0%,0%);stroke-opacity:1;stroke-miterlimit:10;" d="M 180.265625 116.769531 L 164.75 110.78125 "/>
</g>
</svg>

<svg xmlns="http://www.w3.org/2000/svg" xmlns:xlink="http://www.w3.org/1999/xlink" width="300pt" height="300pt" viewBox="0 0 300 300"><defs><symbol overflow="visible"><path d="M.453 1.594v-7.938h4.5v7.938zm.5-.5h3.5v-6.938h-3.5zm0 0"/></symbol><symbol overflow="visible" id="a"><path d="M3.547-5.953c-.65 0-1.164.242-1.547.72-.375.48-.563 1.13-.563 1.952 0 .835.188 1.49.563 1.967.383.48.898.72 1.547.72.644 0 1.156-.24 1.53-.72.376-.476.564-1.132.564-1.968 0-.822-.187-1.474-.562-1.954-.375-.477-.887-.72-1.53-.72zm0-.734c.914 0 1.648.312 2.203.937.55.617.828 1.438.828 2.47 0 1.042-.277 1.87-.828 2.483-.555.617-1.29.922-2.203.922-.93 0-1.668-.305-2.22-.922C.774-1.41.5-2.237.5-3.28c0-1.033.273-1.853.828-2.47.55-.625 1.29-.938 2.22-.938zm0 0"/></symbol><symbol overflow="visible" id="b"><path d="M.89-6.563H2.08l2.906 5.485v-5.484h.86V0H4.656L1.75-5.484V0H.89zm0 0"/></symbol><symbol overflow="visible" id="c"><path d="M.89-6.563h.876v2.688H5v-2.688h.89V0H5v-3.125H1.766V0H.89zm0 0"/></symbol><symbol overflow="visible"><path d="M.406 1.422V-5.64h4V1.42zM.844.97h3.11v-6.157H.843zm0 0"/></symbol><symbol overflow="visible" id="d"><path d="M3.688-5.016v2.172h2.17v.672H3.69V0H3.03v-2.172H.845v-.672H3.03v-2.172zm0 0"/></symbol></defs><g><path fill="#fff" d="M0 0h300v300H0z"/><path d="M82.707 213.777l1.645-10.265" stroke-width="1.2" stroke="#f00" stroke-miterlimit="10" fill="none"/><path d="M84.352 203.512L86 193.25M62.172 216.988l10.266-1.605" stroke-width="1.2" stroke="#000" stroke-miterlimit="10" fill="none"/><path d="M72.438 215.383l10.27-1.606" stroke-width="1.2" stroke="#f00" stroke-miterlimit="10" fill="none"/><path d="M78.707 208.277h8v11h-8zm0 0" fill="#fff"/><use xlink:href="#a" x="78.707" y="216.94" fill="#f00"/><path d="M86 193.25l-18.504-9.473M81.918 196.656l-14.8-7.578M67.496 183.777L52.77 198.45M67.496 183.777l-3.215-20.535M52.77 198.45l9.402 18.538M58.07 198.09l7.524 14.832M64.28 163.242l16.18-13.054M62.828 158.13l12.945-10.442M44.89 155.754l19.39 7.488M80.46 150.188l-3.21-20.536M77.25 129.652l-19.395-7.488M77.07 124.34l-15.515-5.988M77.25 129.652l16.18-13.05M57.855 122.164l-16.18 13.05M57.855 122.164l-3.21-20.535M41.676 135.215l3.215 20.54M46.828 136.516l2.57 16.43M55.523 99.344l-9.695-3.742" stroke-width="1.2" stroke="#000" stroke-miterlimit="10" fill="none"/><path d="M45.828 95.602l-9.7-3.743" stroke-width="1.2" stroke="#f00" stroke-miterlimit="10" fill="none"/><path d="M53.762 103.91l-9.696-3.746" stroke-width="1.2" stroke="#000" stroke-miterlimit="10" fill="none"/><path d="M44.066 100.164l-9.695-3.742" stroke-width="1.2" stroke="#f00" stroke-miterlimit="10" fill="none"/><path d="M54.645 101.63l8.09-6.528" stroke-width="1.2" stroke="#000" stroke-miterlimit="10" fill="none"/><path d="M62.734 95.102l8.09-6.528" stroke-width="1.2" stroke="#00f" stroke-miterlimit="10" fill="none"/><path d="M27.25 88.64h8v11h-8zm0 0" fill="#fff"/><use xlink:href="#a" x="27.25" y="97.304" fill="#f00"/><path d="M70.824 88.574l9.696 3.746" stroke-width="1.2" stroke="#00f" stroke-miterlimit="10" fill="none"/><path d="M80.52 92.32l9.695 3.743" stroke-width="1.2" stroke="#000" stroke-miterlimit="10" fill="none"/><path d="M63.824 83.074h14v11h-14zm0 0" fill="#fff"/><g fill="#00f"><use xlink:href="#b" x="63.824" y="91.737"/><use xlink:href="#c" x="70.802" y="91.737"/></g><path d="M91.75 97.965l8.09-6.524" stroke-width="1.2" stroke="#000" stroke-miterlimit="10" fill="none"/><path d="M99.84 91.44l8.09-6.526" stroke-width="1.2" stroke="#f00" stroke-miterlimit="10" fill="none"/><path d="M88.68 94.16l8.09-6.527" stroke-width="1.2" stroke="#000" stroke-miterlimit="10" fill="none"/><path d="M96.77 87.633l8.09-6.528" stroke-width="1.2" stroke="#f00" stroke-miterlimit="10" fill="none"/><path d="M90.215 96.063l3.215 20.54" stroke-width="1.2" stroke="#000" stroke-miterlimit="10" fill="none"/><path d="M102.395 77.512h8v11h-8zm0 0" fill="#fff"/><use xlink:href="#a" x="102.395" y="86.175" fill="#f00"/><path d="M93.43 116.602l19.39 7.484M93.605 121.91l15.516 5.992M112.82 124.086l8.09-6.523" stroke-width="1.2" stroke="#000" stroke-miterlimit="10" fill="none"/><path d="M120.91 117.563l8.09-6.528M129 111.035l9.695 3.742" stroke-width="1.2" stroke="#00f" stroke-miterlimit="10" fill="none"/><path d="M138.695 114.777l9.7 3.743" stroke-width="1.2" stroke="#000" stroke-miterlimit="10" fill="none"/><path d="M122 105.535h14v11h-14zm0 0" fill="#fff"/><g fill="#00f"><use xlink:href="#b" x="122" y="114.198"/><use xlink:href="#c" x="128.978" y="114.198"/></g><path d="M148.395 118.52l3.21 20.54M153.547 119.82l2.57 16.43M164.574 105.47l-16.18 13.05M151.605 139.06L171 146.546M171 146.547l16.18-13.055M169.547 141.434l12.94-10.442M187.18 133.492l9.695 3.746" stroke-width="1.2" stroke="#000" stroke-miterlimit="10" fill="none"/><path d="M196.875 137.238l9.695 3.742" stroke-width="1.2" stroke="#00f" stroke-miterlimit="10" fill="none"/><path d="M187.18 133.492l-3.215-20.535" stroke-width="1.2" stroke="#000" stroke-miterlimit="10" fill="none"/><path d="M206.57 140.98l1.61 10.27" stroke-width="1.2" stroke="#00f" stroke-miterlimit="10" fill="none"/><path d="M208.18 151.25l1.605 10.27M222.75 127.93l-8.09 6.523" stroke-width="1.2" stroke="#000" stroke-miterlimit="10" fill="none"/><path d="M214.66 134.453l-8.09 6.527" stroke-width="1.2" stroke="#00f" stroke-miterlimit="10" fill="none"/><path d="M203.57 135.48h7v11h-7zm0 0" fill="#fff"/><use xlink:href="#b" x="203.57" y="144.144" fill="#00f"/><path d="M209.785 161.52l19.39 7.484M229.176 169.004l8.09-6.524" stroke-width="1.2" stroke="#000" stroke-miterlimit="10" fill="none"/><path d="M237.266 162.48l8.09-6.527M245.355 155.953l-1.605-10.27" stroke-width="1.2" stroke="#00f" stroke-miterlimit="10" fill="none"/><path d="M243.75 145.684l-1.605-10.27" stroke-width="1.2" stroke="#000" stroke-miterlimit="10" fill="none"/><path d="M245.355 155.953l9.7 3.742" stroke-width="1.2" stroke="#00f" stroke-miterlimit="10" fill="none"/><path d="M255.055 159.695l9.695 3.743" stroke-width="1.2" stroke="#000" stroke-miterlimit="10" fill="none"/><path d="M235.355 148.453h21v15h-21zm0 0" fill="#fff"/><g fill="#00f"><use xlink:href="#b" x="235.355" y="160.555"/><use xlink:href="#c" x="242.333" y="160.555"/></g><use xlink:href="#d" x="249.348" y="155.672" fill="#00f"/><path d="M242.145 135.414l-19.395-7.484M183.965 112.957l-19.39-7.488M180.266 116.77l-15.516-5.99" stroke-width="1.2" stroke="#000" stroke-miterlimit="10" fill="none"/></g></svg>
